X: 1
T:Babara Magone's Visit
M:C
L:1/8
C:Brenda Stubbert
S:Strathsphey & Reel Society of New Hampshire 8.6
R:Strathspey
K:G
B/2|"Am"c>BA<G A>e e/2f/2g|"G"B>AB<G "C"c>A"G"B<G|"Am"c>BA<G A>e e/2f/2g
|"G"d<Bg>B "Am"A/2A/2A A :|!b/2|"Am"a>ge<d e>fg<a|"G"g>ed>B G>AB<G|"Am"a
>
ge<d e>fg>a|"Em"g>fe<d "Am"e2 (3efg|!"Am"a>ge<d e>fg<a|"G"g>ed>B G>AB<G|
"Am"c>A"G"B<G "F"A>Bc>e|"Em"d<Bg>B "Am"A/2A/2A A||!
